images/companyLogos/anyday.svg

<svg width="572" height="149" viewBox="0 0 572 149" fill="none" xmlns="http://www.w3.org/2000/svg">
<g clip-path="url(#clip0)">
<path d="M438.354 113.236C448.301 113.236 456.411 109.104 461.461 103.136V109.706C461.461 110.81 462.357 111.706 463.461 111.706H482.426V35.193H463.461C462.357 35.193 461.461 36.0884 461.461 37.193V42.6912C456.411 37.3353 448.607 33.6627 438.66 33.6627C421.369 33.6627 401.475 46.3638 401.475 73.4493C401.475 100.382 422.134 113.236 438.354 113.236ZM442.486 93.9546C430.856 93.9546 421.981 85.0792 421.981 73.2962C421.981 61.5133 430.856 52.7909 442.486 52.7909C453.81 52.7909 462.073 61.9724 462.073 73.2962C462.073 84.6201 453.81 93.9546 442.486 93.9546Z" fill="#151826"/>
<path d="M348.99 113.241C358.937 113.241 367.047 109.11 372.097 103.142V109.711C372.097 110.816 372.992 111.711 374.097 111.711H393.061V0.00268555H372.097V42.6967C367.047 37.3408 359.243 33.6682 349.296 33.6682C332.004 33.6682 312.111 46.3693 312.111 73.4547C312.111 100.387 332.769 113.241 348.99 113.241ZM353.122 93.9601C341.492 93.9601 332.616 85.0846 332.616 73.3017C332.616 61.5188 341.492 52.7963 353.122 52.7963C364.446 52.7963 372.709 61.9779 372.709 73.3017C372.709 84.6256 364.446 93.9601 353.122 93.9601Z" fill="#151826"/>
<path d="M195.652 32.1367C183.563 32.1367 174.381 37.3827 169.332 43.5037V37.163C169.332 36.0584 168.436 35.163 167.332 35.163H150.51V111.71H172.086V71.4642C172.086 57.8449 178.513 49.8876 189.684 49.8876C200.549 49.8876 205.599 56.9268 205.599 70.24V111.71H227.175V69.0158C227.175 40.4001 211.72 32.1367 195.652 32.1367Z" fill="#151826"/>
<path fill-rule="evenodd" clip-rule="evenodd" d="M62.9218 111.708H40.7332L53.1917 76.5934C41.5814 67.5817 24.8056 68.4076 14.1421 79.0711L0 64.9289C16.2895 48.6394 41.0908 46.0494 60.087 57.1588L80.3667 0H101.79L141.424 111.708H119.235L111.454 89.2307C98.531 95.0519 83.6252 95.0538 70.7005 89.2364L62.9218 111.708ZM77.2884 70.202C78.5676 70.8754 79.8858 71.4487 81.2314 71.9218C87.5876 74.1567 94.5545 74.1567 100.911 71.9218C102.261 71.4472 103.583 70.8717 104.866 70.1955L91.0784 30.299L77.2884 70.202Z" fill="#151826"/>
<path d="M244.832 148.949H262.808C264.858 148.949 266.7 147.698 267.456 145.793L311.444 34.9127H289.292L271.352 82.9607L252.164 34.9127H229.7L260.744 109.481L244.832 148.949Z" fill="#151826"/>
<path d="M505.402 149.149H523.379C525.429 149.149 527.271 147.898 528.026 145.992L572.014 35.1127H549.862L531.922 83.1607L512.734 35.1127H490.27L521.314 109.681L505.402 149.149Z" fill="#151826"/>
</g>
<defs>
<clipPath id="clip0">
<rect width="572" height="149" fill="white"/>
</clipPath>
</defs>
</svg>

<svg fill="none" xmlns="http://www.w3.org/2000/svg" viewBox="0 0 573 150">
  <path
    fill-rule="evenodd"
    clip-rule="evenodd"
    d="M62.922 111.708h-22.19l12.46-35.115c-11.61-9.011-28.386-8.185-39.05 2.478L0 64.93c16.29-16.29 41.09-18.88 60.087-7.77L80.367 0h21.423l39.634 111.708h-22.189l-7.781-22.477c-12.923 5.82-27.829 5.823-40.753.005l-7.78 22.472Zm15.383-40.996a29.185 29.185 0 0 0 2.926 1.21 29.718 29.718 0 0 0 20.389-.26 29.459 29.459 0 0 0 3.246-1.467L91.078 30.3l-13.79 39.902c.336.177.675.347 1.017.51Zm360.049 42.524c9.947 0 18.057-4.132 23.107-10.1v6.57a2 2 0 0 0 2 2h18.965V35.193h-18.965a2.002 2.002 0 0 0-2 2v5.498c-5.05-5.356-12.854-9.028-22.801-9.028-17.291 0-37.185 12.7-37.185 39.786 0 26.933 20.659 39.787 36.879 39.787Zm4.132-19.281c-11.63 0-20.505-8.876-20.505-20.66 0-11.782 8.875-20.504 20.505-20.504 11.324 0 19.587 9.18 19.587 20.505 0 11.324-8.263 20.659-19.587 20.659ZM348.99 113.24c9.947 0 18.057-4.131 23.107-10.099v6.569a2 2 0 0 0 2 2h18.964V.003h-20.964v42.694c-5.05-5.356-12.854-9.029-22.801-9.029-17.292 0-37.185 12.7-37.185 39.787 0 26.932 20.658 39.786 36.879 39.786Zm4.132-19.28c-11.63 0-20.506-8.876-20.506-20.66 0-11.782 8.876-20.505 20.506-20.505 11.324 0 19.587 9.182 19.587 20.506s-8.263 20.658-19.587 20.659Zm-157.47-61.824c-12.089 0-21.271 5.246-26.32 11.367v-6.341a1.998 1.998 0 0 0-.586-1.414 2 2 0 0 0-1.414-.586H150.51v76.547h21.576V71.464c0-13.62 6.427-21.576 17.598-21.576 10.865 0 15.915 7.039 15.915 20.352v41.47h21.576V69.016c0-28.616-15.455-36.88-31.523-36.879Zm67.156 116.812h-17.976l15.912-39.468L229.7 34.913h22.464l19.188 48.048 17.94-48.048h22.152l-43.988 110.88a5 5 0 0 1-4.648 3.156Zm260.571.2h-17.977l15.912-39.468-31.044-74.568h22.464l19.188 48.048 17.94-48.049h22.152l-43.988 110.88a4.997 4.997 0 0 1-4.647 3.157Z"
    fill="#151826"
  />
</svg>
